X: 1597
T: O'Dwyer's Hornpipe   #2
R: hornpipe
B: O'Neill's 1850 #1597
N: F.O'Neill
Z: Michael D. Long, 9/30/98
Z: Michael Hogan
M: C|
L: 1/8
K: G
(dc) |: (B<d)G>G G2(AG) | (F<A)D>D D2(dc) |1,3 (B<d)G>G G2(Bd) | (e<g)(f<a) gedc :|2,4 BdBG (3(ABc) AF | G2G>G G2 :: (ga) | b2bg afdf |
| gabg agfd |[1,3 egfa gbag | f2d>d d2 :|[2,4 (3(efg) fa gedc | B2G>G G2 :: (dc) | BcAB G2AG | FGEF D2dc |
|[1,3 BcAB G2(Bd) | egfa ge :|[2,4 BdBG (3(ABc) AF | G2G>G G2 :: (Bc) | d>B (3.B.B.B G>B (3.B.B.B | d>B (3.B.B.B G>B (3.B.B.B c>A |
| (3.A.A.A F>A (3.A.A.A || c>A (3.A.A.A FAdc BGBd eceg | fdfa gfga | bgfa gedc | B2G>G G2 :|
